www/assets/icons/token.svg

<svg width="24" height="24" viewBox="0 0 24 24" xmlns="http://www.w3.org/2000/svg" fill='currentColor'><path d="M19.97 6.70978L12 2.27979L4.03 6.70978L9.1 9.51978C9.83 8.75978 10.86 8.27979 12 8.27979C13.14 8.27979 14.17 8.75978 14.9 9.51978L19.97 6.70978ZM10 12.2798C10 11.1798 10.9 10.2798 12 10.2798C13.1 10.2798 14 11.1798 14 12.2798C14 13.3798 13.1 14.2798 12 14.2798C10.9 14.2798 10 13.3798 10 12.2798ZM11 21.7198L3 17.2798V8.41979L8.13 11.2698C8.04 11.5898 8 11.9298 8 12.2798C8 14.1398 9.27 15.7098 11 16.1498V21.7198ZM13 21.7198V16.1498C14.73 15.7098 16 14.1398 16 12.2798C16 11.9298 15.96 11.5898 15.87 11.2698L21 8.41979V17.2798L13 21.7198Z"/></svg>

<svg xmlns="http://www.w3.org/2000/svg" width="24" height="24" viewBox="0 0 24 24" fill='currentColor'><path d="M19.97 6.71 12 2.28 4.03 6.71 9.1 9.52c.73-.76 1.76-1.24 2.9-1.24s2.17.48 2.9 1.24zM10 12.28c0-1.1.9-2 2-2s2 .9 2 2-.9 2-2 2-2-.9-2-2m1 9.44-8-4.44V8.42l5.13 2.85c-.09.32-.13.66-.13 1.01 0 1.86 1.27 3.43 3 3.87zm2 0v-5.57c1.73-.44 3-2.01 3-3.87 0-.35-.04-.69-.13-1.01L21 8.42v8.86z"/></svg>
